X:9
T:Scotch Scollops. Ru1.089
%%VWML:RutherfordVol1-2248-p45-0p45
Z:Transcription by Village Music Project, Steve Mansfield July 2015
F:http://www.village-music-project.org.uk/
F:http://www.vwml.org/record/RutherfordVol1/2248/p45
L:1/8
Q:1/4=100
K:Em
E/F/G/A/ Bg|eB"tr"B2|A>G AB|GEE2|
E/F/G/A/ Bg|eB"tr"B2|A>G AB|E2e2:|
|:E/F/G/A/ BG|E/F/G/A/ BG|E/F/G/A/ BA|G/A/B Bf|
g^deB| cB/A/ Bg|A>G AB| GEE2:|
W:Cast off and turn your partner .| Lead
W:through the 3d. Couple Cast up and turn
W:hands round all six .|. Right hand and
W:Left :|
|:
T:Molly's Delight. Ru1.090
B:Rutherford's Country Dances Vol 1, 1756
Z:village music project, Ruairidh Greig July 2015
M:C|
L:1/4
Q:1/4=100
K:Gm
G^FGB|AcBG|BcdG|^FGA2:|
defd|ecdB|cdeG|^FGA2|
BA/G/^FG|ABAG|Bcd2|"tr"A>GG2:|
W:The first man sets to the 2d woman .| the first
W:woman does the same :| Gallop down and up again
W:and Cast off .|. Right hand and Left :|
|:
